packages/match-logos/mono/svg/mongodb.svg

<svg fill="none" height="40" viewBox="0 0 140 40" width="140" xmlns="http://www.w3.org/2000/svg" xmlns:xlink="http://www.w3.org/1999/xlink"><clipPath id="a"><path d="m0 0h140v40h-140z"/></clipPath><g clip-path="url(#a)"><path d="m8.50002 0c-.1.8-.1 1.1-.9 1.9-1.1.9-7.099998 5.9-7.59999775 16.1-.50000025 10.2 7.19999775 14.9 7.19999775 14.9.3-.6 1.2-3.3 1.4-7.3.1-2.7.1-7.5.2-9.4.2-1.8.2-15.1-.3-16.2zm.6 1.2c.7 7.4.8 15.2.8 15.2s.19998 6.4.09998 9.1c-.09998 1.1-.39998 6.2-1.59998 9.6.2 1.1.1 2 .1 3.2 0 .3.4.1 1 .3 1.39998.3.49998-5 .59998-5 0 0 9-5.9 6.9-18.2-2-8.9-6.8-11.9-7.29998-13-.6-.9-.5-.8-.6-1.2zm95.29998 14.2c-.1.2-.6.9-.5 1.1.7.1 1.2.2 1.6.3.7.2 1.1.4 1.2 1.3.1 1 0 4.3 0 6v6.2c-.1.9-.2 1.2-.7 1.4-.3.1-.5.1-1.1.2-.2 0-.5.9-.4 1.1 2.5 0 5.4.1 7.1.1 3.2 0 5.5-.7 7.2-2 1.8-1.3 3.5-3.4 3.5-7.2 0-2.7-1-4.9-2.8-6.4-1.5-1.3-3.6-2-6.1-2-3 0-4.1.1-5.7.1-1-.2-2.8-.2-3.3-.2zm20.2 0c-.1.1-.6 1-.4 1.1.6.1 1.3.2 1.7.3.5.1.8.4.9 1.2v6.1c0 2.2 0 5.3-.1 6.2-.1 1-.2 1.2-.8 1.4-.5.1-.8.2-1.3.2-.2.1-.6 1-.4 1.1 1.9 0 5.3.1 6.6.1 1.7 0 3.3-.2 4.7-.8 2.2-1 3.7-2.5 3.7-4.9 0-2.5-1.8-3.8-3.9-4.3-.1 0-.1-.1 0-.1 1.5-.6 2.6-1.9 2.6-3.5 0-3.3-3-4-5.2-4-1.8 0-3.2.1-5.1.1-2-.2-2.8-.2-3-.2zm-13.5 1.2c1.9 0 3.5.3 4.7 1.1 2.2 1.3 3.3 3.6 3.3 6.5 0 3-.9 4.8-2.3 6-1.3 1.2-2.7 1.4-4 1.4-1.1 0-2.3-.2-2.8-.7-.4-.3-.5-.9-.6-1.2v-6-6.6c0-.1.2-.3.3-.4.4 0 .9-.1 1.4-.1zm19.6.1c2.5 0 4.2.9 4.2 3.4 0 1.1-.4 2-1.3 2.5-.3.2-1 .3-2 .3-.8 0-1.7 0-2-.1-.1 0-.1-.1-.1-.1 0-1.8 0-4.5.1-5.5 0-.1.1-.4.3-.4.2-.1.6-.1.8-.1zm-62.3 4.5c-1.1 0-2.6.8-3.8 1.8 0 0-.2.2-.2-.1s.1-.8.1-1.2-.2-.5-.2-.5c-.8.4-3 .9-3.9 1-.6.1-.8.7-.1.9s1.1.4 1.5.6c.2.3.2.6.2.8 0 1.9 0 4.8-.1 6.3 0 .6-.2.8-.6 1-.3.1-.6.1-1.1.2-.1.1-.1 1 0 1.1.3 0 1.8-.1 2.9-.1 1.7 0 2.5.1 2.9.1.2-.2.2-.9.1-1.1-.5 0-.8-.1-1.2-.2-.5-.1-.6-.3-.6-.8-.1-1.3-.1-4.1-.1-6 0-.5.1-.8.3-.9.6-.5 1.5-.8 2.3-.8s1.3.3 1.7.6c.5.5.8 1.1.8 1.6.1 1.1.1 3.2.1 5.1 0 1-.1 1.3-.4 1.4-.2.1-.6.2-1.2.2-.2.2-.1 1 0 1.1.7 0 1.6-.1 2.8-.1 1.6 0 2.6.1 3 .1.2-.2.2-.9.1-1.1-.6-.1-1.1-.2-1.6-.4-.1 0-.2-.3-.2-.4-.1-.9-.1-3.4-.1-5.1 0-1.3-.2-2.5-.8-3.4-.4-1.1-1.3-1.7-2.6-1.7zm-41.6.1c-.9.4-3 .9-3.8 1-.3 0-.5.2-.5.4s.1.3.4.3c.6.2 1.1.4 1.5.7.3.2.3.5.3.7v.1c0 2 0 4.8-.1 6.3 0 .6-.2.9-.7 1-.3.1-.6.1-1.1.2 0 0-.1.2-.1.4 0 .3 0 .5.1.6h5.8c.1-.2.1-.8.1-1-.1 0-.3 0-.5-.1-.2 0-.5-.1-.6-.1-.6-.1-.7-.5-.7-.8v-6.6c0-.2.1-.5.2-.6.8-.6 1.8-1 2.6-1 1.3 0 2.2.7 2.4 2.2.2.9.1 4.5 0 5.8 0 .5-.2.8-.6.9-.3.1-.5.1-.8.2-.1 0-.2 0-.4.1 0 0-.1.2-.1.4 0 .3 0 .4.1.5h2.7c1.3 0 2.2 0 3 .1 0 0 .1-.1.1-.3.1-.3.1-.6 0-.7-.3 0-.6-.1-.8-.1-.1 0-.2-.1-.4-.1-.3-.1-.6-.2-.6-.8v-4.6c0-.9 0-1.5-.1-2.1 0-.1 0-.2.1-.2 1-.7 1.9-1 2.6-1 1.7 0 2.4 1.2 2.6 2.2.1 1 .1 5.1 0 5.5 0 .6-.2.9-.6 1-.3.1-.5.1-1 .2-.1.1 0 .8 0 1 .8-.1 1.6-.1 3.1-.1.8 0 1.4 0 1.9.1h.6c.1-.1.2-.8.1-1-.6-.1-1.1-.2-1.5-.4-.3-.1-.5-.5-.5-.6v-5c0-2.9-1.4-4.7-3.7-4.7-1 0-2.4.7-3.9 1.8 0 0-.1.1-.2.1s-.1 0-.2-.1c-.7-1.2-1.7-1.8-2.9-1.8-.8 0-2.2.5-3.8 1.7l-.1.1c-.1 0-.2-.1-.2-.2v-.9-.3c.3-.2.2-.4.2-.4zm54.9 0c-1.1 0-2.9.7-3.6 1.2-1 .7-1.6 1.9-1.6 3.2 0 2 .9 3.3 2.6 3.9.1 0 .1.1.1.1 0 .1 0 .1-.1.1-.3.2-.7.5-1.1.8-.3.2-.6.3-.7.4-.2.2-.2.3-.1.5v.1c.1.4.5 1.1 1.7 1.6l.1.1c0 .1 0 .1-.1.1-1.4 1-2 1.6-2.3 1.9-.4.5-.5 1.1-.5 1.3 0 .7.4 1.8 1.3 2.5s2 1 3.6 1c1.2 0 2.3-.3 3.3-.8 2.2-1.1 3.5-2.8 3.5-4.7 0-1.3-.7-2.3-1.9-2.7-.8-.3-2.6-.4-4.1-.5h-.7c-1.1-.1-1.3-.5-1.3-.9s.5-.7.7-.7h.7c1.1-.1 2.1-.5 2.9-1.1.9-.7 1.7-1.6 1.7-3.6 0-.2-.1-.9-.2-1.1v-.2h.1s.2.1.6.1h.1c.4 0 .9-.2 1.1-.5.3-.4.3-.8.3-1.1s-.1-.5-.1-.5c-.4.3-.8.6-1.8.6-.6 0-1.1-.1-1.6-.3-.7-.5-1.3-.8-2.6-.8zm-29.7 0c-1.3 0-2.7.4-3.8 1.1-1.7 1.1-2.5 2.7-2.5 4.8 0 2.9 1.5 6.1 5.8 6.1 1.2 0 2.6-.5 3.4-1 1.7-1.1 2.6-2.9 2.6-5.2 0-3.5-2.3-5.8-5.5-5.8zm44.3 0c-1.3 0-2.7.4-3.8 1.1-1.7 1.1-2.5 2.7-2.5 4.8 0 2.9 1.5 6.1 5.8 6.1 1.2 0 2.6-.5 3.5-1 1.7-1.1 2.6-2.9 2.6-5.2-.1-3.5-2.4-5.8-5.6-5.8zm-15.3 1.1c1.7 0 2.7 1.3 2.7 3.4 0 1-.3 1.9-.8 2.3-.3.4-1 .5-1.3.5-2.1 0-2.8-1.9-2.8-3.5 0-1.7.8-2.7 2.2-2.7zm-30 .1c2.4 0 4 2.2 4 5.4 0 1.7-.4 2.9-1.1 3.5-.5.4-1 .6-1.7.6-2.4 0-4-2.3-4-5.6 0-1.8.5-2.9 1.5-3.6.3-.2.8-.3 1.3-.3zm44.3 0c2.4 0 4 2.2 4 5.4 0 1.7-.4 2.9-1.1 3.5-.5.4-1 .6-1.8.6-2.4 0-4-2.3-4-5.6 0-1.8.5-2.9 1.5-3.6.4-.2.8-.3 1.4-.3zm35 1.6h.7c3.3 0 5.2 1.4 5.2 3.9 0 2.6-1.7 3.7-3.7 3.7-.7 0-1.8-.1-2.2-.3s-.8-.9-.8-1.3c-.1-1.1-.1-4-.1-5.7 0-.1.1-.1.2-.1.1-.2.4-.2.7-.2zm-49.5 9.4c1.5 0 2.8.1 3.6.4 1 .4 1.4 1 1.4 1.9 0 1.4-1.1 2.7-3.7 2.7-1.3 0-2.3-.3-3-.9-.6-.5-.9-1.1-.9-1.8 0-.8.5-1.4 1.5-2.1.2-.1.6-.2 1.1-.2z" fill="#1f304c"/></g></svg>

<svg width="140" height="40" viewBox="0 0 140 40" fill="none" xmlns="http://www.w3.org/2000/svg">
<g clip-path="url(#clip0)">
<path d="M8.50002 0C8.40002 0.8 8.40002 1.1 7.60002 1.9C6.50002 2.8 0.500022 7.8 2.22549e-05 18C-0.499978 28.2 7.20002 32.9 7.20002 32.9C7.50002 32.3 8.40002 29.6 8.60002 25.6C8.70002 22.9 8.70002 18.1 8.80002 16.2C9.00002 14.4 9.00002 1.1 8.50002 0ZM9.10002 1.2C9.80002 8.6 9.90002 16.4 9.90002 16.4C9.90002 16.4 10.1 22.8 10 25.5C9.90002 26.6 9.60002 31.7 8.40002 35.1C8.60002 36.2 8.50002 37.1 8.50002 38.3C8.50002 38.6 8.90002 38.4 9.50002 38.6C10.9 38.9 10 33.6 10.1 33.6C10.1 33.6 19.1 27.7 17 15.4C15 6.5 10.2 3.5 9.70002 2.4C9.10002 1.5 9.20002 1.6 9.10002 1.2ZM104.4 15.4C104.3 15.6 103.8 16.3 103.9 16.5C104.6 16.6 105.1 16.7 105.5 16.8C106.2 17 106.6 17.2 106.7 18.1C106.8 19.1 106.7 22.4 106.7 24.1V30.3C106.6 31.2 106.5 31.5 106 31.7C105.7 31.8 105.5 31.8 104.9 31.9C104.7 31.9 104.4 32.8 104.5 33C107 33 109.9 33.1 111.6 33.1C114.8 33.1 117.1 32.4 118.8 31.1C120.6 29.8 122.3 27.7 122.3 23.9C122.3 21.2 121.3 19 119.5 17.5C118 16.2 115.9 15.5 113.4 15.5C110.4 15.5 109.3 15.6 107.7 15.6C106.7 15.4 104.9 15.4 104.4 15.4ZM124.6 15.4C124.5 15.5 124 16.4 124.2 16.5C124.8 16.6 125.5 16.7 125.9 16.8C126.4 16.9 126.7 17.2 126.8 18V24.1C126.8 26.3 126.8 29.4 126.7 30.3C126.6 31.3 126.5 31.5 125.9 31.7C125.4 31.8 125.1 31.9 124.6 31.9C124.4 32 124 32.9 124.2 33C126.1 33 129.5 33.1 130.8 33.1C132.5 33.1 134.1 32.9 135.5 32.3C137.7 31.3 139.2 29.8 139.2 27.4C139.2 24.9 137.4 23.6 135.3 23.1C135.2 23.1 135.2 23 135.3 23C136.8 22.4 137.9 21.1 137.9 19.5C137.9 16.2 134.9 15.5 132.7 15.5C130.9 15.5 129.5 15.6 127.6 15.6C125.6 15.4 124.8 15.4 124.6 15.4ZM111.1 16.6C113 16.6 114.6 16.9 115.8 17.7C118 19 119.1 21.3 119.1 24.2C119.1 27.2 118.2 29 116.8 30.2C115.5 31.4 114.1 31.6 112.8 31.6C111.7 31.6 110.5 31.4 110 30.9C109.6 30.6 109.5 30 109.4 29.7V23.7V17.1C109.4 17 109.6 16.8 109.7 16.7C110.1 16.7 110.6 16.6 111.1 16.6ZM130.7 16.7C133.2 16.7 134.9 17.6 134.9 20.1C134.9 21.2 134.5 22.1 133.6 22.6C133.3 22.8 132.6 22.9 131.6 22.9C130.8 22.9 129.9 22.9 129.6 22.8C129.5 22.8 129.5 22.7 129.5 22.7C129.5 20.9 129.5 18.2 129.6 17.2C129.6 17.1 129.7 16.8 129.9 16.8C130.1 16.7 130.5 16.7 130.7 16.7ZM68.4 21.2C67.3 21.2 65.8 22 64.6 23C64.6 23 64.4 23.2 64.4 22.9C64.4 22.6 64.5 22.1 64.5 21.7C64.5 21.3 64.3 21.2 64.3 21.2C63.5 21.6 61.3 22.1 60.4 22.2C59.8 22.3 59.6 22.9 60.3 23.1C61 23.3 61.4 23.5 61.8 23.7C62 24 62 24.3 62 24.5C62 26.4 62 29.3 61.9 30.8C61.9 31.4 61.7 31.6 61.3 31.8C61 31.9 60.7 31.9 60.2 32C60.1 32.1 60.1 33 60.2 33.1C60.5 33.1 62 33 63.1 33C64.8 33 65.6 33.1 66 33.1C66.2 32.9 66.2 32.2 66.1 32C65.6 32 65.3 31.9 64.9 31.8C64.4 31.7 64.3 31.5 64.3 31C64.2 29.7 64.2 26.9 64.2 25C64.2 24.5 64.3 24.2 64.5 24.1C65.1 23.6 66 23.3 66.8 23.3C67.6 23.3 68.1 23.6 68.5 23.9C69 24.4 69.3 25 69.3 25.5C69.4 26.6 69.4 28.7 69.4 30.6C69.4 31.6 69.3 31.9 69 32C68.8 32.1 68.4 32.2 67.8 32.2C67.6 32.4 67.7 33.2 67.8 33.3C68.5 33.3 69.4 33.2 70.6 33.2C72.2 33.2 73.2 33.3 73.6 33.3C73.8 33.1 73.8 32.4 73.7 32.2C73.1 32.1 72.6 32 72.1 31.8C72 31.8 71.9 31.5 71.9 31.4C71.8 30.5 71.8 28 71.8 26.3C71.8 25 71.6 23.8 71 22.9C70.6 21.8 69.7 21.2 68.4 21.2ZM26.8 21.3C25.9 21.7 23.8 22.2 23 22.3C22.7 22.3 22.5 22.5 22.5 22.7C22.5 22.9 22.6 23 22.9 23C23.5 23.2 24 23.4 24.4 23.7C24.7 23.9 24.7 24.2 24.7 24.4V24.5C24.7 26.5 24.7 29.3 24.6 30.8C24.6 31.4 24.4 31.7 23.9 31.8C23.6 31.9 23.3 31.9 22.8 32C22.8 32 22.7 32.2 22.7 32.4C22.7 32.7 22.7 32.9 22.8 33H28.6C28.7 32.8 28.7 32.2 28.7 32C28.6 32 28.4 32 28.2 31.9C28 31.9 27.7 31.8 27.6 31.8C27 31.7 26.9 31.3 26.9 31V24.4C26.9 24.2 27 23.9 27.1 23.8C27.9 23.2 28.9 22.8 29.7 22.8C31 22.8 31.9 23.5 32.1 25C32.3 25.9 32.2 29.5 32.1 30.8C32.1 31.3 31.9 31.6 31.5 31.7C31.2 31.8 31 31.8 30.7 31.9C30.6 31.9 30.5 31.9 30.3 32C30.3 32 30.2 32.2 30.2 32.4C30.2 32.7 30.2 32.8 30.3 32.9H33C34.3 32.9 35.2 32.9 36 33C36 33 36.1 32.9 36.1 32.7C36.2 32.4 36.2 32.1 36.1 32C35.8 32 35.5 31.9 35.3 31.9C35.2 31.9 35.1 31.8 34.9 31.8C34.6 31.7 34.3 31.6 34.3 31V26.4C34.3 25.5 34.3 24.9 34.2 24.3C34.2 24.2 34.2 24.1 34.3 24.1C35.3 23.4 36.2 23.1 36.9 23.1C38.6 23.1 39.3 24.3 39.5 25.3C39.6 26.3 39.6 30.4 39.5 30.8C39.5 31.4 39.3 31.7 38.9 31.8C38.6 31.9 38.4 31.9 37.9 32C37.8 32.1 37.9 32.8 37.9 33C38.7 32.9 39.5 32.9 41 32.9C41.8 32.9 42.4 32.9 42.9 33H43.5C43.6 32.9 43.7 32.2 43.6 32C43 31.9 42.5 31.8 42.1 31.6C41.8 31.5 41.6 31.1 41.6 31V26C41.6 23.1 40.2 21.3 37.9 21.3C36.9 21.3 35.5 22 34 23.1C34 23.1 33.9 23.2 33.8 23.2C33.7 23.2 33.7 23.2 33.6 23.1C32.9 21.9 31.9 21.3 30.7 21.3C29.9 21.3 28.5 21.8 26.9 23L26.8 23.1C26.7 23.1 26.6 23 26.6 22.9V22V21.7C26.9 21.5 26.8 21.3 26.8 21.3ZM81.7 21.3C80.6 21.3 78.8 22 78.1 22.5C77.1 23.2 76.5 24.4 76.5 25.7C76.5 27.7 77.4 29 79.1 29.6C79.2 29.6 79.2 29.7 79.2 29.7C79.2 29.8 79.2 29.8 79.1 29.8C78.8 30 78.4 30.3 78 30.6C77.7 30.8 77.4 30.9 77.3 31C77.1 31.2 77.1 31.3 77.2 31.5V31.6C77.3 32 77.7 32.7 78.9 33.2L79 33.3C79 33.4 79 33.4 78.9 33.4C77.5 34.4 76.9 35 76.6 35.3C76.2 35.8 76.1 36.4 76.1 36.6C76.1 37.3 76.5 38.4 77.4 39.1C78.3 39.8 79.4 40.1 81 40.1C82.2 40.1 83.3 39.8 84.3 39.3C86.5 38.2 87.8 36.5 87.8 34.6C87.8 33.3 87.1 32.3 85.9 31.9C85.1 31.6 83.3 31.5 81.8 31.4H81.1C80 31.3 79.8 30.9 79.8 30.5C79.8 30.1 80.3 29.8 80.5 29.8H81.2C82.3 29.7 83.3 29.3 84.1 28.7C85 28 85.8 27.1 85.8 25.1C85.8 24.9 85.7 24.2 85.6 24V23.8H85.7C85.7 23.8 85.9 23.9 86.3 23.9H86.4C86.8 23.9 87.3 23.7 87.5 23.4C87.8 23 87.8 22.6 87.8 22.3C87.8 22 87.7 21.8 87.7 21.8C87.3 22.1 86.9 22.4 85.9 22.4C85.3 22.4 84.8 22.3 84.3 22.1C83.6 21.6 83 21.3 81.7 21.3ZM52 21.3C50.7 21.3 49.3 21.7 48.2 22.4C46.5 23.5 45.7 25.1 45.7 27.2C45.7 30.1 47.2 33.3 51.5 33.3C52.7 33.3 54.1 32.8 54.9 32.3C56.6 31.2 57.5 29.4 57.5 27.1C57.5 23.6 55.2 21.3 52 21.3ZM96.3 21.3C95 21.3 93.6 21.7 92.5 22.4C90.8 23.5 90 25.1 90 27.2C90 30.1 91.5 33.3 95.8 33.3C97 33.3 98.4 32.8 99.3 32.3C101 31.2 101.9 29.4 101.9 27.1C101.8 23.6 99.5 21.3 96.3 21.3ZM81 22.4C82.7 22.4 83.7 23.7 83.7 25.8C83.7 26.8 83.4 27.7 82.9 28.1C82.6 28.5 81.9 28.6 81.6 28.6C79.5 28.6 78.8 26.7 78.8 25.1C78.8 23.4 79.6 22.4 81 22.4ZM51 22.5C53.4 22.5 55 24.7 55 27.9C55 29.6 54.6 30.8 53.9 31.4C53.4 31.8 52.9 32 52.2 32C49.8 32 48.2 29.7 48.2 26.4C48.2 24.6 48.7 23.5 49.7 22.8C50 22.6 50.5 22.5 51 22.5ZM95.3 22.5C97.7 22.5 99.3 24.7 99.3 27.9C99.3 29.6 98.9 30.8 98.2 31.4C97.7 31.8 97.2 32 96.4 32C94 32 92.4 29.7 92.4 26.4C92.4 24.6 92.9 23.5 93.9 22.8C94.3 22.6 94.7 22.5 95.3 22.5ZM130.3 24.1H131C134.3 24.1 136.2 25.5 136.2 28C136.2 30.6 134.5 31.7 132.5 31.7C131.8 31.7 130.7 31.6 130.3 31.4C129.9 31.2 129.5 30.5 129.5 30.1C129.4 29 129.4 26.1 129.4 24.4C129.4 24.3 129.5 24.3 129.6 24.3C129.7 24.1 130 24.1 130.3 24.1ZM80.8 33.5C82.3 33.5 83.6 33.6 84.4 33.9C85.4 34.3 85.8 34.9 85.8 35.8C85.8 37.2 84.7 38.5 82.1 38.5C80.8 38.5 79.8 38.2 79.1 37.6C78.5 37.1 78.2 36.5 78.2 35.8C78.2 35 78.7 34.4 79.7 33.7C79.9 33.6 80.3 33.5 80.8 33.5Z" fill="#1F304C"/>
</g>
<defs>
<clipPath id="clip0">
<rect width="140" height="40" fill="white"/>
</clipPath>
</defs>
</svg>
